svg/emoji_u1f961.svg

<?xml version="1.0" encoding="utf-8"?>
<!-- Generator: Adobe Illustrator 25.2.3, SVG Export Plug-In . SVG Version: 6.00 Build 0)  -->
<svg version="1.1" id="Layer_2" xmlns="http://www.w3.org/2000/svg" xmlns:xlink="http://www.w3.org/1999/xlink" x="0px" y="0px"
	 viewBox="0 0 128 128" style="enable-background:new 0 0 128 128;" xml:space="preserve">
<path style="fill:#E0E0E0;" d="M72.47,80.6c0,0,48.46-53.8,47.83-54.85c-0.63-1.05-19.78-9.21-20.69-9.37
	c-0.91-0.17-5.85-0.58-6.26-0.49c-0.41,0.08-6.92-2.86-6.92-2.86s0.1-1.86-0.65-2.28S72.22,4.37,68.74,4.28
	C64.22,4.18,10.44,21.82,8.84,22.4c-2.75,0.99-0.65,8.23,0.31,14.5s9.41,63.7,11.34,66.36s37.88,21.23,41.02,21.23
	c0.53,0,2.23,0.26,2.94-1.82C67.94,112.35,71.95,80.22,72.47,80.6z"/>
<path style="fill:#FFFFFF;" d="M12.48,25.46c6.85-1.75,39.28-12.32,43.9-13.93c4.95-1.72,8.79-3.42,14.02-2.61
	c1.65,0.25,5.93,1.98,12.02,4.56c0.93,0.4-1.48,1.87-0.5,2.29c1.15,0.49,5.68-0.06,6.86,0.45c12.06,5.28,25.21,11.38,25.21,11.38
	L63.37,50.43l-2.01-0.54L19.06,30.42L12.48,25.46z"/>
<path style="fill:#B0B0B0;" d="M64.2,48.58c0,0-13.8-7.69-14.63-8.38c-1.48-1.25-3.06-8.19-2.89-8.59
	c0.53-1.24,34.23-13.95,34.23-13.95s17.19,0.22,18.27,0.19c2.61-0.08,2.74-1.6-1.53-1.92c-4.27-0.32-13.18-1.02-13.67-1.35
	c-0.53-0.35,1.65-1.96,2.18-3.06c0.38-0.8-0.93-1.58-3.19,0.15c-1.58,1.21-4.64,3.2-4.64,3.2s-6.17,1.83-14.86,5.34
	c-9.73,3.92-19.92,8.33-20.99,8.52c-2.04,0.36-13.02,1.82-15.18,1.7s-16.85-6.79-17.74-7.08c-1.61-0.54-2.57,0.9-1.19,1.98
	c1.38,1.08,15.4,8.73,18.1,9.03c2.7,0.3,15.8-1.05,15.8-1.05s1.83,8.79,3.09,9.69s16.25,7.75,16.56,8.5
	c0.67,1.6-0.19,72.04,0.48,72.63s2.81-0.34,7.76-2.92s29.95-15.8,31.81-17.04c1.86-1.24,2.68-2.89,3.3-5.78s15.18-67.02,15.49-68.67
	c0.31-1.65,0.62-4.75-2.07-4.23c-2.68,0.52-34.49,14.25-34.49,14.25L64.2,48.58z"/>
<path style="fill:#858585;" d="M82.66,56.87c0.12-1.61,17.51-20.91,18.75-21.69c1.24-0.78,15.75-8.26,16.59-8.78
	c0.85-0.52,1.3-1.76-0.91-1.17c-2.21,0.59-18.23,7.98-18.94,8.56s-5.78,5.75-5.78,5.75s-4.17-1.39-4.66-1.35
	c-1.23,0.1-22.34,9.35-23.19,9.68c-0.85,0.33-1.63,2.02,0.78,1.5c2.41-0.52,21.21-7.74,21.93-7.87c0.72-0.13,3.46,1.07,3.46,1.07
	S79.29,55.14,79.35,56.91c0.1,2.7,9.15,20.24,8.89,21.47c-0.26,1.24-23.36,39.81-25.76,43.9c-1.11,1.89,0.68,3.03,2.04,1.34
	s24.96-39.34,26.23-39.51c1.27-0.16,10.87,18.4,11.39,19.02c0.52,0.61,2.42-0.47,1.65-1.88c-1.05-1.92-8.01-15.31-11.44-22.44
	C85.68,64.96,82.49,59.15,82.66,56.87z"/>
<path style="fill:#FE2A28;" d="M24.7,89.71c0.26,0.79,28.02,13.19,28.74,12.93c0.72-0.26,0.1-3.01-0.6-4.13
	c-0.86-1.37-2.61-2.43-2.61-2.43l-0.06-4.96c0,0,2.65,2.08,4.09,2.21c1.44,0.13,1.97-1.61,1.04-2.25c-0.83-0.58-1.53-0.25-1.53-0.25
	s-1.59-1.13-2.96-2.36s-2.46-2.87-2.46-2.87l-0.11-5.07c0,0,2.25,1.84,3.56,1.97c1.31,0.13,2.23-1.57,0.98-2.36
	c-0.72-0.46-1.47,0.03-1.47,0.03s-1.41-0.81-2.45-1.99c-1.24-1.4-1.96-3.11-1.96-3.11l-0.09-3.58c0,0,1.79,1.37,3.1,1.57
	c1.31,0.2,1.64-1.14,0.91-1.8c-0.72-0.66-1.32-0.11-1.32-0.11s-3.84-3.87-6.82-7.87C40.53,60.4,39,58.49,39,58.49l-0.07-4.64
	c0,0,0.06-1.21-1.05-1.47c-1.12-0.26-0.98,0.98-0.98,0.98v4.79c0,0-4.13,3.67-6.36,4s-2.56,0-2.56,0s-0.22-1.37-1.45-0.92
	c-0.98,0.36-0.68,1.91,0.2,2.5c1.89,1.26,4.26,0.66,4.26,0.66v4.13c0,0-1.97,1.84-3.08,1.71c-1.12-0.13-1.12-0.13-1.12-0.13
	s-0.1-1.35-1.38-0.85c-1.22,0.48-0.23,2.73,1.77,2.95c1.71,0.19,2.36,0.07,2.36,0.07v5.45c0,0-1.44,0.79-2.43,0.85
	c-0.98,0.07-1.84-0.33-1.84-0.33s-0.57-1.58-1.57-0.66c-0.94,0.86,0.13,2.36,1.57,2.95c1.44,0.59,2.95,0.26,2.95,0.26v6.5
	c0,0-1.77-0.07-2.69,0.72C24.63,88.79,24.7,89.71,24.7,89.71z"/>
<path style="fill:#E0E0E0;" d="M34.94,88.92l8.2,3.54c0,0-0.41-5.63-4.22-6.55C35.12,85,34.94,88.92,34.94,88.92z"/>
<path style="fill:#E0E0E0;" d="M35.26,78.59l6.34,2.46c0,0-0.23-4.45-3.19-5.16C35.46,75.18,35.26,78.59,35.26,78.59z"/>
<path style="fill:#E0E0E0;" d="M35.77,69.29l5.25,2.1c0,0,0.26-4.07-2.82-4.72C35.6,66.11,35.77,69.29,35.77,69.29z"/>
</svg>

<?xml version="1.0" encoding="UTF-8" standalone="no"?>
<!DOCTYPE svg PUBLIC "-//W3C//DTD SVG 1.1//EN" "http://www.w3.org/Graphics/SVG/1.1/DTD/svg11.dtd">
<svg width="100%" height="100%" viewBox="0 0 128 128" version="1.1" xmlns="http://www.w3.org/2000/svg" xmlns:xlink="http://www.w3.org/1999/xlink" xml:space="preserve" xmlns:serif="http://www.serif.com/" style="fill-rule:evenodd;clip-rule:evenodd;stroke-linejoin:round;stroke-miterlimit:2;">
    <path d="M72.47,80.6C72.47,80.6 120.93,26.8 120.3,25.75C119.67,24.7 100.52,16.54 99.61,16.38C98.7,16.21 93.76,15.8 93.35,15.89C92.94,15.97 86.43,13.03 86.43,13.03C86.43,13.03 86.53,11.17 85.78,10.75C85.03,10.33 72.22,4.37 68.74,4.28C64.22,4.18 10.44,21.82 8.84,22.4C6.09,23.39 8.19,30.63 9.15,36.9C10.11,43.17 18.56,100.6 20.49,103.26C22.42,105.92 58.37,124.49 61.51,124.49C62.04,124.49 63.74,124.75 64.45,122.67C67.94,112.35 71.95,80.22 72.47,80.6Z" style="fill:rgb(224,224,224);fill-rule:nonzero;"/>
    <path d="M12.48,25.46C19.33,23.71 51.76,13.14 56.38,11.53C61.33,9.81 65.17,8.11 70.4,8.92C72.05,9.17 76.33,10.9 82.42,13.48C83.35,13.88 80.94,15.35 81.92,15.77C83.07,16.26 87.6,15.71 88.78,16.22C100.84,21.5 113.99,27.6 113.99,27.6L63.37,50.43L61.36,49.89L19.06,30.42L12.48,25.46Z" style="fill:rgb(250,250,250);fill-rule:nonzero;"/>
    <path d="M64.2,48.58C64.2,48.58 50.4,40.89 49.57,40.2C48.09,38.95 46.51,32.01 46.68,31.61C47.21,30.37 80.91,17.66 80.91,17.66C80.91,17.66 98.1,17.88 99.18,17.85C101.79,17.77 101.92,16.25 97.65,15.93C93.38,15.61 84.47,14.91 83.98,14.58C83.45,14.23 85.63,12.62 86.16,11.52C86.54,10.72 85.23,9.94 82.97,11.67C81.39,12.88 78.33,14.87 78.33,14.87C78.33,14.87 72.16,16.7 63.47,20.21C53.74,24.13 43.55,28.54 42.48,28.73C40.44,29.09 29.46,30.55 27.3,30.43C25.14,30.31 10.45,23.64 9.56,23.35C7.95,22.81 6.99,24.25 8.37,25.33C9.75,26.41 23.77,34.06 26.47,34.36C29.17,34.66 42.27,33.31 42.27,33.31C42.27,33.31 44.1,42.1 45.36,43C46.62,43.9 61.61,50.75 61.92,51.5C62.59,53.1 61.73,123.54 62.4,124.13C63.07,124.72 65.21,123.79 70.16,121.21C75.11,118.63 100.11,105.41 101.97,104.17C103.83,102.93 104.65,101.28 105.27,98.39C105.89,95.5 120.45,31.37 120.76,29.72C121.07,28.07 121.38,24.97 118.69,25.49C116.01,26.01 84.2,39.74 84.2,39.74L64.2,48.58Z" style="fill:rgb(189,189,189);fill-rule:nonzero;"/>
    <path d="M82.66,56.87C82.78,55.26 100.17,35.96 101.41,35.18C102.65,34.4 117.16,26.92 118,26.4C118.85,25.88 119.3,24.64 117.09,25.23C114.88,25.82 98.86,33.21 98.15,33.79C97.44,34.37 92.37,39.54 92.37,39.54C92.37,39.54 88.2,38.15 87.71,38.19C86.48,38.29 65.37,47.54 64.52,47.87C63.67,48.2 62.89,49.89 65.3,49.37C67.71,48.85 86.51,41.63 87.23,41.5C87.95,41.37 90.69,42.57 90.69,42.57C90.69,42.57 79.29,55.14 79.35,56.91C79.45,59.61 88.5,77.15 88.24,78.38C87.98,79.62 64.88,118.19 62.48,122.28C61.37,124.17 63.16,125.31 64.52,123.62C65.88,121.93 89.48,84.28 90.75,84.11C92.02,83.95 101.62,102.51 102.14,103.13C102.66,103.74 104.56,102.66 103.79,101.25C102.74,99.33 95.78,85.94 92.35,78.81C85.68,64.96 82.49,59.15 82.66,56.87Z" style="fill:rgb(117,117,117);fill-rule:nonzero;"/>
    <path d="M24.7,89.71C24.96,90.5 52.72,102.9 53.44,102.64C54.16,102.38 53.54,99.63 52.84,98.51C51.98,97.14 50.23,96.08 50.23,96.08L50.17,91.12C50.17,91.12 52.82,93.2 54.26,93.33C55.7,93.46 56.23,91.72 55.3,91.08C54.47,90.5 53.77,90.83 53.77,90.83C53.77,90.83 52.18,89.7 50.81,88.47C49.44,87.24 48.35,85.6 48.35,85.6L48.24,80.53C48.24,80.53 50.49,82.37 51.8,82.5C53.11,82.63 54.03,80.93 52.78,80.14C52.06,79.68 51.31,80.17 51.31,80.17C51.31,80.17 49.9,79.36 48.86,78.18C47.62,76.78 46.9,75.07 46.9,75.07L46.81,71.49C46.81,71.49 48.6,72.86 49.91,73.06C51.22,73.26 51.55,71.92 50.82,71.26C50.1,70.6 49.5,71.15 49.5,71.15C49.5,71.15 45.66,67.28 42.68,63.28C40.53,60.4 39,58.49 39,58.49L38.93,53.85C38.93,53.85 38.99,52.64 37.88,52.38C36.76,52.12 36.9,53.36 36.9,53.36L36.9,58.15C36.9,58.15 32.77,61.82 30.54,62.15C28.31,62.48 27.98,62.15 27.98,62.15C27.98,62.15 27.76,60.78 26.53,61.23C25.55,61.59 25.85,63.14 26.73,63.73C28.62,64.99 30.99,64.39 30.99,64.39L30.99,68.52C30.99,68.52 29.02,70.36 27.91,70.23L26.79,70.1C26.79,70.1 26.69,68.75 25.41,69.25C24.19,69.73 25.18,71.98 27.18,72.2C28.89,72.39 29.54,72.27 29.54,72.27L29.54,77.72C29.54,77.72 28.1,78.51 27.11,78.57C26.13,78.64 25.27,78.24 25.27,78.24C25.27,78.24 24.7,76.66 23.7,77.58C22.76,78.44 23.83,79.94 25.27,80.53C26.71,81.12 28.22,80.79 28.22,80.79L28.22,87.29C28.22,87.29 26.45,87.22 25.53,88.01C24.63,88.79 24.7,89.71 24.7,89.71Z" style="fill:rgb(219,68,55);fill-rule:nonzero;"/>
    <path d="M34.94,88.92L43.14,92.46C43.14,92.46 42.73,86.83 38.92,85.91C35.12,85 34.94,88.92 34.94,88.92Z" style="fill:rgb(224,224,224);fill-rule:nonzero;"/>
    <path d="M35.26,78.59L41.6,81.05C41.6,81.05 41.37,76.6 38.41,75.89C35.46,75.18 35.26,78.59 35.26,78.59Z" style="fill:rgb(224,224,224);fill-rule:nonzero;"/>
    <path d="M35.77,69.29L41.02,71.39C41.02,71.39 41.28,67.32 38.2,66.67C35.6,66.11 35.77,69.29 35.77,69.29Z" style="fill:rgb(224,224,224);fill-rule:nonzero;"/>
</svg>
